X:1
T:Title
%%score ( 1 2 ) { 3 | 4 }
L:1/8
Q:1/4=105
M:4/4
K:F
V:1 treble nm="Grand Piano, Soprano"
V:2 treble 
V:3 bass nm="Choir Pad, The Harbor Light"
V:4 bass 
V:1
 [Ac]2 [Ac]2 [Ac]3 [FA] | [GB]2 [Bd]2 [Ac]2 [FA]2 | [GB]2 [GB]2 [GB]3 [FA] | [EG]2 [Ec]2 [FA]4 | %4
w: By~Edwin~Gardner * * *||||
 [Ac]2 [Ac]2 [Ac]3 [FA] | [GB]2 [Bd]2 [Ac]2 [FA]2 | [Ac]2 [Af]2 [Ge]3 [Af] | [Ge]2 [Fd]2 [Ec]4 | %8
w: ||||
 [Bd]2 [Ac]2 [GB]3 [^FA] | [GB]2 [EG]2 [FA]2 [Ac]2 | [Ac]2 [_A=B]2 [=Ac]3 [_Bd] | %11
w: |||
 [Ac]2 [_A=B]2 [=Ac]4 | [FA]2 [Ac]2 [Af]3 [Ge] | [Af]2 [Bd]2 [Ac]2 [FA]2 | F2 F>G A3 A | %15
w: ||||
 F4 [EG]2- [B,EG]2 | [A,CF]6 z2 | F2 F2 FCFA | [Ec]2 [Fc]2 [Gc]3 [Bc] | [Ac]2 [Gc]2 [Fc]2 [FA]2 | %20
w: |||||
 [Bd]2 [Bd]2 [Bd]3 [df] | [ce]2 [Bd]2 [Ac]4 | [GB]2 [GB]2 [GB]3 [EG] | [FA]2 [GB]2 [_A=B]2 [=Ac]2 | %24
w: ||||
 [Bd]3 [Bd] [Ac]2 [Ac]2 | [GB]3 [EG] [GB]2 [FA]2 | z2 [FA][GB] [Ac][Bd][ce][df] | %27
w: |||
 [df]4 [Bd]3 [GB] | [FA]4 [GB]3 [EG] | [GB]4 [FA]4- | [FA]4 z4 |] %31
w: ||||
V:2
 x8 | x8 | x8 | x8 | x8 | x8 | x8 | x8 | x8 | x8 | x8 | x8 | x8 | x8 | x8 | z4 C2 z2 | x8 | x8 | %18
 x8 | x8 | x8 | x8 | x8 | x8 | x8 | x8 | x8 | x8 | x8 | x8 | x8 |] %31
V:3
 F,CA,C F,CA,C | F,DB,D F,CA,C | C,B,G,B, C,B,G,B, | C,G,E,B, F,CA,C | F,CA,C F,CA,C | %5
 F,DB,D F,CA,C | F,[K:treble]CA,C G,ECD | CED[K:bass]=B, C4 | C,B,E,A, C,G,E,^F, | %9
 C,G,E,G, F,CA,C | .F,2 z2 .F,2 z2 | .F,2 z2 F,4 | F,CA,C F,CA,C | F,[K:treble]CB,F CFC[K:bass]A, | %14
 F,2 F,>G, A,3 A, | F,4 C,4 | F,6 z2 | z8 | G,2 A,2 E,2 G,2 | C2 B,2 A,2 C2 | B,2 B,2 .B,2 z B, | %21
 B,2 B,2 C4 | G,2 G,2 G,2 z[K:treble] C | C2 B,2 D2 C2 | B,,4 F,4 | C,3 E, F,4 | C6 z2 | B,6 z2 | %28
 C,4 C,4 | C,4 F,4- | F,4 z4 |] %31
V:4
 F,,4 F,,4 | F,,4 F,,4 | C,,4 C,,4 | C,,4 F,,4 | F,,4 F,,4 | F,,4 F,,4 | F,,4 G,,4 | G,,4 C,4 | %8
 C,,4 C,,4 | C,,4 F,,4 | .[F,,A,,C,]2 z2 .[F,,A,,C,]2 z2 | .[F,,A,,C,]2 z2 [F,,A,,C,]4 | %12
 F,,4 F,,4 | A,,2 B,,2 C,4 | F,,2 F,,>G,, A,,3 A,, | F,,4 C,,4 | F,,6 z2 | z8 | C,2 C,2 C,2 C,2 | %19
 C,2 E,2 F,2 F,2 | [B,,D,F,]2 [B,,D,F,]2 .[B,,D,F,]2 z [B,,D,F,] | [B,,D,F,]2 [B,,D,F,]2 [F,A,]4 | %22
 [C,E,]2 [C,E,]2 [C,E,]2 z C, | F,2 F,2 F,2 F,2 | z4 F,,4 | z8 | [F,A,]6 z2 | [B,,D,F,]6 z2 | %28
 C,,4 C,,4 | z4 F,,4- | F,,4 z4 |] %31

